!!!!SEGMENT: pl-wtm--r-2548--009_hertz-michal--jak-wam-sie-podoba-no-9.krn
!!!cenid: 18xx:3116
!!!COM: Hertz, Michał
!!!COM-rismID: pe41023359
!!!CDT: 1844/09/28-~1918
!!!CNT: Polish
!!!GTL: Jak wam się podoba
!!!OTL: No. 9
!!!OMV: 009
!!!PDT:
!!!AGN:
!!!SMS-siglum: PL-Wtm
!!!SMS-shelfmark: R 2548
!!!SMS-shelfwork: 001-009 G
!!!SMS-variant:
!!!SMS-altvar:
!!!NIFC-rismSourceID: 1001082244
!!!NIFC-rismChildID: 1001082244
!!!NIFC-islandoraID:
!!!URL-pdf-islandora:
!!!URL-scan:
!!!ONB-nifc:
!!!AIN: 2 piano
!!!key: D
!!!OMD: Andante
**kern	**kern	**dynam
*group1	*group1	*
*part2	*part1	*part1
*staff2	*staff1	*
*I"[Piano]	*I"[Piano]	*
*Ipiano	*Ipiano	*
*ICklav	*ICklav	*
*clefF4	*clefG2	*
*k[f#c#]	*k[f#c#]	*
*D:	*D:	*
*M4/4	*M4/4	*
*met(c)	*met(c)	*
=1	=1	=1
*	*tremolo	*
!	!	!LO:DY:rj
[<1A	(<16e/LL	p
.	16c#/	.
.	16e/	.
.	16c#/	.
.	16e/	.
.	16c#/	.
.	16e/	.
.	16c#/JJ)	.
.	(<16e/LL	.
.	16c#/	.
.	16e/	.
.	16c#/	.
.	16e/	.
.	16c#/	.
.	16e/	.
.	16c#/JJ)	.
=2	=2	=2
1A;<]	(<16fn/LL	.
.	16d/	<
.	16f/	.
.	16d/	.
.	16f/	.
.	16d/	.
.	16f/	.
.	16d/JJ)	.
*	*Xtremolo	*
.	4f/	[
.	4r;>	.
!!LO:LB:g=original
=3	=3	=3
*	*tremolo	*
!	!	!LO:DY:rj
[<1A	(<16f#/LL	p
.	16d#X/	.
.	16f#/	.
.	16d#/	.
.	16f#/	.
.	16d#/	.
.	16f#/	.
.	16d#/JJ)	.
.	(<16f#/LL	.
.	16d#/	.
.	16f#/	.
.	16d#/	.
.	16f#/	.
.	16d#/	.
.	16f#/	.
.	16d#/JJ)	.
=4	=4	=4
1A;<]	(<16g/LL	.
.	16e/	.
.	16g/	<
.	16e/	.
.	16g/	.
.	16e/	.
.	16g/	.
.	16e/JJ)	.
*	*Xtremolo	*
.	4g/	[
.	4r;>	.
!!LO:PB:g=original
=5	=5	=5
*	*tremolo	*
!	!	!LO:DY:rj
[<1A	(<16g#X/LL	p
.	16e#X/	.
.	16g#/	.
.	16e#/	.
.	16g#/	.
.	16e#/	.
.	16g#/	.
.	16e#/JJ)	.
.	(<16g#/LL	.
.	16e#/	.
.	16g#/	.
.	16e#/	.
.	16g#/	.
.	16e#/	.
.	16g#/	.
.	16e#/JJ)	.
=6	=6	=6
1A;<]	(<16a/LL	.
.	16f#/	.
.	16a/	<
.	16f#/	.
.	16a/	.
.	16f#/	.
.	16a/	.
.	16f#/JJ)	.
*	*Xtremolo	*
.	4g/ 4a	[
.	4r;>	.
!!LO:LB:g=original
=7||	=7||	=7||
*k[f#c#]	*k[f#c#]	*
*M6/8	*M6/8	*
8r	8a/	pp
=8	=8	=8
!LO:TX:t=P:problem=all\right&colon; global	!LO:TX:t=P:problem=all\right&colon; global	!
8D\L	(>[>4.ff#\	.
8F#\ 8A\ 8d\	.	.
8F#\J 8A\ 8d\	.	.
8A\ 8d\ 8f#\	8ff#\L]	.
!	!LO:TX:t=P:problem=all\middle&colon; global	!
8r	8ee\	.
8r	8dd\J)	<
=9	=9	=9
8D\L	(>8cc#\	.
8G\ 8B\ 8e\	[>4b\)	.
!LO:TX:t=P:problem=all\middle&colon; global	!	!
8G\J 8B\ 8e\	.	.
8B\ 8e\ 8g\	4b\]	.
8r	.	.
8r	8b'>\	.
=10	=10	=10
8D\L	[>4.ee\	.
8G\ 8A\ 8c#\	.	.
8G\J 8A\ 8c#\	.	.
8A\ 8c#\ 8e\	(>8ee\L]	.
8r	8dd\	.
8r	8cc#\J)	.
=11	=11	=11
8D\L	8b\	.
8F#\ 8A\ 8d\	[<4a/	[
8F#\J 8A\ 8d\	.	.
8A\ 8d\ 8f#\	4a/]	.
8r	.	.
8r	8a/	.
!!LO:LB:g=original
=12	=12	=12
!	!LO:TX:t=P:4\right:problem	!
8BB\L	(>[>4.dd\	.
8F#\ 8B 8d	.	.
8F#\J 8B 8d	.	.
!LO:TX:t=P:problem=8\right	!	!
8B\ 8d 8f#	8dd\L]	.
8r	8cc#\	.
8r	8b\J)	>
=13	=13	=13
8E\L	(<8a/L	.
8B\ 8e	8g#X/	.
8B\J 8e	8gn/J)	.
8B\ 8e	(<4g/	.
8r	.	.
8r	8f#/)	.
=14	=14	=14
8D\L	(>4f#/	.
8G\ 8A 8c#	.	.
8G\J 8A 8c#	8e/)	.
8G\ 8A 8c#	8e/L	.
8r	(<8e/	.
8r	8e#X/J)	]
=15	=15	=15
8D\L	[>4.f#/	.
8F#\ 8A 8d	.	.
8F#\J 8A 8d	.	.
8F#\ 8A 8d	4f#/]	.
8r	.	.
8r	8a/	.
!!LO:LB:g=original
=16	=16	=16
8D\L	[>4.ff#\	p
8F#\ 8A 8d	.	.
8F#\J 8A 8d	.	.
8A\ 8d 8f#	8ff#\L]	.
8r	(>8ee\	.
8r	8dd\J)	.
=17	=17	=17
*	*^	*
8D\L	8r	8cc#\	.
8G\ 8B 8e	8r	[<4b\	.
8G\J 8B	8dd#X/	.	.
!	!	!LO:TX:b:t=cre_scen_do:problem=dynamics with extention lines	!LO:HP:i:b:t=cre-scen-do:ext=ud
8B\ 8e	(<8ee/L	4b\]	<
8r	8ff#/	.	.
8r	8gg/J)	8b\	.
=18	=18	=18	=18
*	*	*2\right	*
!LO:TX:t=P:problem=8\right	!	!	!
8D\L	[>4.ee\	[<2.g\	.
8G\ 8A 8c#	.	.	.
8G\J 8A 8c#	.	.	.
8A\ 8c# 8e	8ee\L]	.	.
8r	(>8dd\	.	.
8r	8cc#\J)	.	.
=19	=19	=19	=19
8D\L	8r	(<8g\L] (>8b	.
8A\ 8d	8r	8f#\) 8a)	.
8G\J 8e	8cc#/	8a\J	.
(<8F#\L (>8d	(<8dd/L	4a\	.
8E\) 8c#)	8ee/	.	.
8D\J 8d	8ff#/J)	8a\	[
*	*v	*v	*
!!LO:LB:g=original
=20	=20	=20
8BB\L	[<4.f#\ [>4.dd\	.
8F#\ 8B 8d	.	.
8F#\J 8B 8d	.	.
8B\ 8d	(>8f#\L] 8dd]	.
8r	8e\ 8cc#	.
!	!LO:TX:a:t=di_mi_nu_en_do.:problem=dynamics with extention lines	!LO:HP:i:a:t=di-mi-nu-en-do.:ext=ud
8r	8d\J) 8b	>
=21	=21	=21
8E\L	(<8c#/L 8a	.
8e\	8B#X/ 8g#X	.
8e\J	8Bn/J) 8gn	.
!LO:TX:t=P:problem=8\right	!	!
8e\	(>4B/ 4g	.
8r	.	.
8r	8A/) 8f#	.
=22	=22	=22
8AA\L	[<4.A/ [>4.f#	.
!LO:TX:b:i:t=ritenuto.	!	!
!LO:TX:t=P:problem=8\right	!	!
8G\ 8c#	.	.
8G\J 8c#	.	.
8G\ 8c#	4A/] 4f#]	.
8r	.	.
8r	8G/ 8c# 8e	.
=23	=23	=23
*	*^	*
(>8DD\L 8D	[>4.d/ 4.F#	8F#\L	]
!LO:TX:t=P:problem=8\left	!	!	!
8FF#\)	.	8D\ 8A	.
8BBB\J 8BB	.	8D\J	.
!	!	!LO:N:vis=4	!
8DD/ 8AA	8d/]	8D\	.
8r	8r	4ryy	.
8r	8r	.	.
*	*v	*v	*
==	==	==
*-	*-	*-
!!!system-decoration: [{g1}]
!!!RDF**kern: > = above
!!!RDF**kern: < = below
!!!ENC: Anastazja Marusiak
!!!END: 2021-11-03
!!!EED: Jędrzej Mróz
!!!ESR: 2021-11-06
!!!YEC: Copyright 2022 Narodowy Instytut Fryderyka Chopina (https://polishscores.org)
!!!YEM: License CC-BY-4.0 (https://creativecommons.org/licenses/by/4.0)
